usr/share/icons/biglinux-icons-material-dark/symbolic/actions/mergecell-horizontal.svg

<svg xmlns="http://www.w3.org/2000/svg" viewBox="0 0 16 16">
<defs id="defs3051">
<style id="current-color-scheme" type="text/css">
.ColorScheme-Contrast{color:#dedede}
</style>
</defs>
<path d="M2 2v12h12V2zm1 1h2v2H3zm3 0h3v2H6zm4 0h3v2h-3zM3 6h2v3H3zm3 0h7v3H6zm-3 4h2v3H3zm3 0h7v3H6z" class="ColorScheme-Contrast" style="fill:currentColor;fill-opacity:1;stroke:none"/>
</svg>

<svg xmlns="http://www.w3.org/2000/svg" viewBox="0 0 16 16">
  <defs id="defs3051">
    <style type="text/css" id="current-color-scheme">
      .ColorScheme-Text {
        color:#dedede;
      }
      </style>
  </defs>
 <path style="fill:currentColor;fill-opacity:1;stroke:none" 
     d="M 2 2 L 2 14 L 14 14 L 14 13 L 14 10 L 14 9 L 14 3 L 14 2 L 2 2 z M 3 3 L 5 3 L 5 5 L 3 5 L 3 3 z M 6 3 L 9 3 L 9 5 L 6 5 L 6 3 z M 10 3 L 13 3 L 13 5 L 10 5 L 10 3 z M 3 6 L 5 6 L 5 9 L 3 9 L 3 6 z M 6 6 L 9 6 L 10 6 L 13 6 L 13 9 L 6 9 L 6 6 z M 3 10 L 5 10 L 5 11 L 5 12 L 5 13 L 3 13 L 3 12 L 3 11 L 3 10 z M 6 10 L 13 10 L 13 13 L 10 13 L 9 13 L 6 13 L 6 10 z "
     class="ColorScheme-Text"
     />
</svg>
